!!!COM: Schubert, Franz
!!!CDT: 1797/01/31/-1828/11/19/
!!!CNT: Austrian
!!!OTL@@DE: Variationen &uuml;ber ein Thema von Anselm H&uuml;ttenbrenner
!!!OTL@EN: 13 Variations on a Theme by Anselm H&uuml;ttenbrenner
!!!OKY: A Minor
!!!SCT: D 576
!!!PDT: 1867///
!!!ODT: 1817/08//
!!!YEC: Copyright 2001 by Craig Stuart Sapp
!!!YEN: United States of America
!!!OMD: Thema
!! Andantino
**kern	**kern
*clefF4	*clefG2
*k[]	*k[]
*a:	*a:
*M2/4	*M2/4
*MM72	*MM72
*>[A,A,B,B]	*>[A,A,B,B]
*>A	*>A
4A	4c 4e
8B	8d 8e
8A	8c 8e
=2	=2
4G#	4B 4e
8F#	8A 8e
8G#	8B 8e
=3	=3
4A	4c 4e
4Fn 4A	4d^ 4f^
=4	=4
2Gn	2B 2d
=5	=5
4G	4B 4d 4g
8A	8c 8g
8B	8d 8g
=6	=6
4c	4e 4g
4A 4c	4e 4a
=7	=7
*	*^
2E 2B	2e	4a
.	.	8.g#t
.	.	32f#
.	.	32g#
=8	=8	=8
2AA 2E 2A	2e	2a
*	*v	*v
=9:|!|:	=9:|!|:
*>B	*>B
4A 4c#	4e 4a
8B	8d 8a
8c#	8e 8a
=10	=10
4d	4f 4a
4cn	4e 4a
=11	=11
4B	4d# 4b
8c#	8e 8b
8d#	8f# 8b
=12	=12
4e	4g# 4b
8e	8gn 8b
8dn	8fn 8g 8b
=13	=13
4c	4e 4g 4cc
8A 8e	8a 8cc#
8Gn 8e	8a 8cc#
=14	=14
4F# 4d	4a 4dd
8F# 8c	8a 8dd#
8Fn 8c	8a 8dd#
=15	=15
4E 4A 4c	4e 4a 4cc 4ee
4E 4G# 4B	4e 4g# 4b 4ee
=16	=16
2AA 2E 2A	2e 2a 2cc 2ee
=:|!	=:|!
*-	*-
